X:268
T: ES WOHNT EIN MUELLER IN JENEM THAL
N: E0146A
O: Europa, Mitteleuropa, Deutschland
R: erzaehlendes Volks - Lied, Scherz, Schwank
M: 6/8
L: 1/8
K: Bb
F | B2BAAc | B2GF3 |
e3d2f | c4z
f | c2dc2B | A2GF3 |
d2ddd2dd | d2ddd2 |
f2 | ccccc2BB | A2G2F2 |
F2 | B2B2c2c2 | f6 |
e2 | d2d2c2c2 | B4z3

@@@ Tune index: 3918
